packages/astro-components-stencil/src/icons/brightness-7.svg

<svg width="24" height="24" viewBox="0 0 24 24" fill="none" xmlns="http://www.w3.org/2000/svg">
<path fill-rule="evenodd" clip-rule="evenodd" d="M20 8.68992V4.99992C20 4.44992 19.55 3.99992 19 3.99992H15.31L12.71 1.39992C12.32 1.00992 11.69 1.00992 11.3 1.39992L8.68998 3.99992H4.99998C4.44998 3.99992 3.99998 4.44992 3.99998 4.99992V8.68992L1.39998 11.2899C1.00998 11.6799 1.00998 12.3099 1.39998 12.6999L3.99998 15.2999V18.9999C3.99998 19.5499 4.44998 19.9999 4.99998 19.9999H8.68998L11.29 22.5999C11.68 22.9899 12.31 22.9899 12.7 22.5999L15.3 19.9999H19C19.55 19.9999 20 19.5499 20 18.9999V15.3099L22.6 12.7099C22.99 12.3199 22.99 11.6899 22.6 11.2999L20 8.68992ZM12 17.9999C8.68998 17.9999 5.99998 15.3099 5.99998 11.9999C5.99998 8.68992 8.68998 5.99992 12 5.99992C15.31 5.99992 18 8.68992 18 11.9999C18 15.3099 15.31 17.9999 12 17.9999ZM7.99998 11.9999C7.99998 9.78992 9.78998 7.99992 12 7.99992C14.21 7.99992 16 9.78992 16 11.9999C16 14.2099 14.21 15.9999 12 15.9999C9.78998 15.9999 7.99998 14.2099 7.99998 11.9999Z" fill="black"/>
</svg>

<svg xmlns="http://www.w3.org/2000/svg" viewBox="0 0 24 24"><g xmlns="http://www.w3.org/2000/svg" id="brightness-7" fill-rule="nonzero">
            <path d="M20 8.69V5c0-.55-.45-1-1-1h-3.69l-2.6-2.6a.996.996 0 00-1.41 0L8.69 4H5c-.55 0-1 .45-1 1v3.69l-2.6 2.6a.996.996 0 000 1.41L4 15.3V19c0 .55.45 1 1 1h3.69l2.6 2.6c.39.39 1.02.39 1.41 0l2.6-2.6H19c.55 0 1-.45 1-1v-3.69l2.6-2.6a.996.996 0 000-1.41L20 8.69zM12 18c-3.31 0-6-2.69-6-6s2.69-6 6-6 6 2.69 6 6-2.69 6-6 6zm0-10c-2.21 0-4 1.79-4 4s1.79 4 4 4 4-1.79 4-4-1.79-4-4-4z"/>
        </g></svg>
